X:519
T:an Italian Rant
R:reel
M:4/4
L:1/8
K:Emin
EFGA B2B2 | c2BA B2B2 | A2AB G2G2 | FEFG EBcB |
EFGA B2B2 | c2BA B2B2 | A2AB G2G2 | FEFG E4 :|
|: e2 e2 d2 d2 | ^cBcd B3 B | BcBA B2 B2 | A2 AB G4 | GABG A2 F2 |
FGAF G2 E2 | EFGA B2B2 | c2BA B2B2 | A2AB G2G2 | FEFG E4 :|
